res/graphics/quest/pharmacy.svg

<?xml version="1.0" encoding="utf-8"?>
<!-- Uploaded to: SVG Repo, www.svgrepo.com, Generator: SVG Repo Mixer Tools -->
<svg width="800px" height="800px" viewBox="0 0 1024 1024" class="icon"  version="1.1" xmlns="http://www.w3.org/2000/svg"><path d="M812.739059 365.607418v607.891105H204.815985v-607.891105h607.923074z m-113.777778 370.521058v-122.95289h-129.954107v-129.954107h-122.984858v129.954107h-129.954107v122.95289h129.954107v129.986076h122.984858v-129.986076h129.954107z" fill="#42BC90" /><path d="M812.739059 365.19182H204.815985l134.941275-122.153663h338.040523z" fill="#FFB578" /><path d="M698.961281 613.175586v122.95289h-129.954107v129.986076h-122.984858v-129.986076h-129.954107v-122.95289h129.954107v-129.954107h122.984858v129.954107z" fill="#FF4893" /><path d="M339.75726 58.35307h338.040523v122.153664h-338.040523z" fill="#FFB578" /><path d="M812.742256 995.880041H204.815985a22.378321 22.378321 0 0 1-22.378321-22.378321v-607.891105a22.378321 22.378321 0 0 1 22.378321-22.378321h607.923074a22.378321 22.378321 0 0 1 22.378321 22.378321v607.891105a22.371927 22.371927 0 0 1-22.375124 22.378321z m-585.54795-44.756642h563.166432v-563.134463H227.194306v563.134463z" fill="#4F46A3" /><path d="M812.742256 387.570141H204.815985a22.378321 22.378321 0 0 1-15.019051-38.970247l134.941276-122.153664a22.365533 22.365533 0 0 1 15.01905-5.789591h338.040523a22.378321 22.378321 0 0 1 15.019051 5.789591l134.941275 122.153664a22.378321 22.378321 0 0 1-15.015853 38.970247z m-549.857725-44.756642h491.789179l-85.497974-77.397021H348.382504l-85.497973 77.397021zM677.80098 202.885055h-338.040523a22.378321 22.378321 0 0 1-22.378321-22.378321v-122.153664a22.378321 22.378321 0 0 1 22.378321-22.378321h338.040523a22.378321 22.378321 0 0 1 22.378321 22.378321v122.153664a22.378321 22.378321 0 0 1-22.378321 22.378321z m-315.665399-44.756642h293.283881v-77.397022h-293.283881v77.397022zM569.007174 888.496069h-122.984858a22.378321 22.378321 0 0 1-22.378321-22.378321v-107.607755h-107.575786a22.378321 22.378321 0 0 1-22.378321-22.378321v-122.952889a22.378321 22.378321 0 0 1 22.378321-22.378321h107.575786v-107.575786a22.378321 22.378321 0 0 1 22.378321-22.378321h122.984858a22.378321 22.378321 0 0 1 22.378321 22.378321v107.575786h107.575786a22.378321 22.378321 0 0 1 22.378321 22.378321v122.952889a22.378321 22.378321 0 0 1-22.378321 22.378321h-107.575786v107.607755a22.378321 22.378321 0 0 1-22.378321 22.378321z m-100.60334-44.756642h78.228216v-107.607755a22.378321 22.378321 0 0 1 22.378321-22.378321h107.575786v-78.196247h-107.575786a22.378321 22.378321 0 0 1-22.378321-22.378321v-107.575786h-78.228216v107.575786a22.378321 22.378321 0 0 1-22.378321 22.378321h-107.575786v78.196247h107.575786a22.378321 22.378321 0 0 1 22.378321 22.378321v107.607755z" fill="#4F46A3" /></svg>

<?xml version="1.0" encoding="UTF-8" standalone="no"?>
<svg
   xmlns:dc="http://purl.org/dc/elements/1.1/"
   xmlns:cc="http://creativecommons.org/ns#"
   xmlns:rdf="http://www.w3.org/1999/02/22-rdf-syntax-ns#"
   xmlns:svg="http://www.w3.org/2000/svg"
   xmlns="http://www.w3.org/2000/svg"
   xmlns:sodipodi="http://sodipodi.sourceforge.net/DTD/sodipodi-0.dtd"
   xmlns:inkscape="http://www.inkscape.org/namespaces/inkscape"
   version="1.1"
   viewBox="0 0 128 128"
   id="svg28"
   sodipodi:docname="new_pharmacy.svg"
   inkscape:version="1.0.2 (e86c870879, 2021-01-15)">
  <metadata
     id="metadata34">
    <rdf:RDF>
      <cc:Work
         rdf:about="">
        <dc:format>image/svg+xml</dc:format>
        <dc:type
           rdf:resource="http://purl.org/dc/dcmitype/StillImage" />
      </cc:Work>
    </rdf:RDF>
  </metadata>
  <defs
     id="defs32" />
  <sodipodi:namedview
     pagecolor="#ffffff"
     bordercolor="#666666"
     borderopacity="1"
     objecttolerance="10"
     gridtolerance="10"
     guidetolerance="10"
     inkscape:pageopacity="0"
     inkscape:pageshadow="2"
     inkscape:window-width="1482"
     inkscape:window-height="868"
     id="namedview30"
     showgrid="false"
     inkscape:zoom="1.6855469"
     inkscape:cx="-108.73589"
     inkscape:cy="119.22496"
     inkscape:window-x="0"
     inkscape:window-y="0"
     inkscape:window-maximized="0"
     inkscape:current-layer="svg28" />
  <path
     d="m128 64c0 35.346-28.654 64-64 64-35.346 0-64-28.654-64-64s28.654-64 64-64c35.346 0 64 28.654 64 64"
     fill="#e9a76f"
     stroke-width=".2"
     id="path2" />
  <g
     id="g1446"
     transform="matrix(0.09472928,0,0,0.09472928,14.742411,13.983952)">
    <path
       d="m 812.73906,365.60742 v 607.8911 H 204.81598 V 365.60742 Z M 698.96128,736.12848 V 613.17559 H 569.00717 V 483.22148 H 446.02232 V 613.17559 H 316.06821 V 736.12848 H 446.02232 V 866.11455 H 569.00717 V 736.12848 Z"
       fill="#42bc90"
       id="path36" />
    <path
       d="M 812.73906,365.19182 H 204.81598 L 339.75726,243.03816 h 338.04052 z"
       fill="#ffb578"
       id="path38" />
    <path
       d="M 698.96128,613.17559 V 736.12848 H 569.00717 V 866.11455 H 446.02232 V 736.12848 H 316.06821 V 613.17559 H 446.02232 V 483.22148 h 122.98485 v 129.95411 z"
       fill="#ff4893"
       id="path40" />
    <path
       d="M 339.75726,58.35307 H 677.79778 V 180.50673 H 339.75726 Z"
       fill="#ffb578"
       id="path42" />
    <path
       d="M 812.74226,995.88004 H 204.81598 A 22.378321,22.378321 0 0 1 182.43766,973.50172 V 365.61061 a 22.378321,22.378321 0 0 1 22.37832,-22.37832 h 607.92308 a 22.378321,22.378321 0 0 1 22.37832,22.37832 v 607.89111 a 22.371927,22.371927 0 0 1 -22.37512,22.37832 z M 227.19431,951.1234 H 790.36074 V 387.98894 H 227.19431 Z"
       fill="#4f46a3"
       id="path44" />
    <path
       d="M 812.74226,387.57014 H 204.81598 A 22.378321,22.378321 0 0 1 189.79693,348.59989 L 324.73821,226.44623 a 22.365533,22.365533 0 0 1 15.01905,-5.78959 h 338.04052 a 22.378321,22.378321 0 0 1 15.01905,5.78959 l 134.94128,122.15366 a 22.378321,22.378321 0 0 1 -15.01585,38.97025 z M 262.88453,342.8135 H 754.67371 L 669.17574,265.41648 H 348.3825 Z M 677.80098,202.88505 H 339.76046 A 22.378321,22.378321 0 0 1 317.38214,180.50673 V 58.35307 A 22.378321,22.378321 0 0 1 339.76046,35.974749 H 677.80098 A 22.378321,22.378321 0 0 1 700.1793,58.35307 v 122.15366 a 22.378321,22.378321 0 0 1 -22.37832,22.37832 z M 362.13558,158.12841 H 655.41946 V 80.731391 H 362.13558 Z M 569.00717,888.49607 H 446.02232 A 22.378321,22.378321 0 0 1 423.64399,866.11775 V 758.50999 H 316.06821 A 22.378321,22.378321 0 0 1 293.68989,736.13167 V 613.17878 a 22.378321,22.378321 0 0 1 22.37832,-22.37832 H 423.64399 V 483.22468 a 22.378321,22.378321 0 0 1 22.37833,-22.37833 h 122.98485 a 22.378321,22.378321 0 0 1 22.37832,22.37833 v 107.57578 h 107.57579 a 22.378321,22.378321 0 0 1 22.37832,22.37832 v 122.95289 a 22.378321,22.378321 0 0 1 -22.37832,22.37832 H 591.38549 v 107.60776 a 22.378321,22.378321 0 0 1 -22.37832,22.37832 z M 468.40383,843.73943 h 78.22822 V 736.13167 a 22.378321,22.378321 0 0 1 22.37832,-22.37832 H 676.58616 V 635.5571 H 569.01037 A 22.378321,22.378321 0 0 1 546.63205,613.17878 V 505.603 H 468.40383 V 613.17878 A 22.378321,22.378321 0 0 1 446.02551,635.5571 H 338.44973 v 78.19625 h 107.57578 a 22.378321,22.378321 0 0 1 22.37832,22.37832 z"
       fill="#4f46a3"
       id="path46" />
  </g>
  <g
     id="g1446-3"
     transform="matrix(0.09472928,0,0,0.09472928,16.125511,15.731517)"
     style="fill:#000000;fill-opacity:0.2;stroke-width:10.5564;stop-color:#000000;stop-opacity:1">
    <path
       d="m 812.73906,365.60742 v 607.8911 H 204.81598 V 365.60742 Z M 698.96128,736.12848 V 613.17559 H 569.00717 V 483.22148 H 446.02232 V 613.17559 H 316.06821 V 736.12848 H 446.02232 V 866.11455 H 569.00717 V 736.12848 Z"
       fill="#42bc90"
       id="path36-6"
       style="font-variation-settings:normal;stop-color:#000000;stop-opacity:1" />
    <path
       d="M 812.73906,365.19182 H 204.81598 L 339.75726,243.03816 h 338.04052 z"
       fill="#ffb578"
       id="path38-0"
       style="font-variation-settings:normal;stop-color:#000000;stop-opacity:1" />
    <path
       d="M 698.96128,613.17559 V 736.12848 H 569.00717 V 866.11455 H 446.02232 V 736.12848 H 316.06821 V 613.17559 H 446.02232 V 483.22148 h 122.98485 v 129.95411 z"
       fill="#ff4893"
       id="path40-6"
       style="font-variation-settings:normal;stop-color:#000000;stop-opacity:1" />
    <path
       d="M 339.75726,58.35307 H 677.79778 V 180.50673 H 339.75726 Z"
       fill="#ffb578"
       id="path42-2"
       style="font-variation-settings:normal;stop-color:#000000;stop-opacity:1" />
    <path
       d="M 812.74226,995.88004 H 204.81598 A 22.378321,22.378321 0 0 1 182.43766,973.50172 V 365.61061 a 22.378321,22.378321 0 0 1 22.37832,-22.37832 h 607.92308 a 22.378321,22.378321 0 0 1 22.37832,22.37832 v 607.89111 a 22.371927,22.371927 0 0 1 -22.37512,22.37832 z M 227.19431,951.1234 H 790.36074 V 387.98894 H 227.19431 Z"
       fill="#4f46a3"
       id="path44-6"
       style="font-variation-settings:normal;stop-color:#000000;stop-opacity:1" />
    <path
       d="M 812.74226,387.57014 H 204.81598 A 22.378321,22.378321 0 0 1 189.79693,348.59989 L 324.73821,226.44623 a 22.365533,22.365533 0 0 1 15.01905,-5.78959 h 338.04052 a 22.378321,22.378321 0 0 1 15.01905,5.78959 l 134.94128,122.15366 a 22.378321,22.378321 0 0 1 -15.01585,38.97025 z M 262.88453,342.8135 H 754.67371 L 669.17574,265.41648 H 348.3825 Z M 677.80098,202.88505 H 339.76046 A 22.378321,22.378321 0 0 1 317.38214,180.50673 V 58.35307 A 22.378321,22.378321 0 0 1 339.76046,35.974749 H 677.80098 A 22.378321,22.378321 0 0 1 700.1793,58.35307 v 122.15366 a 22.378321,22.378321 0 0 1 -22.37832,22.37832 z M 362.13558,158.12841 H 655.41946 V 80.731391 H 362.13558 Z M 569.00717,888.49607 H 446.02232 A 22.378321,22.378321 0 0 1 423.64399,866.11775 V 758.50999 H 316.06821 A 22.378321,22.378321 0 0 1 293.68989,736.13167 V 613.17878 a 22.378321,22.378321 0 0 1 22.37832,-22.37832 H 423.64399 V 483.22468 a 22.378321,22.378321 0 0 1 22.37833,-22.37833 h 122.98485 a 22.378321,22.378321 0 0 1 22.37832,22.37833 v 107.57578 h 107.57579 a 22.378321,22.378321 0 0 1 22.37832,22.37832 v 122.95289 a 22.378321,22.378321 0 0 1 -22.37832,22.37832 H 591.38549 v 107.60776 a 22.378321,22.378321 0 0 1 -22.37832,22.37832 z M 468.40383,843.73943 h 78.22822 V 736.13167 a 22.378321,22.378321 0 0 1 22.37832,-22.37832 H 676.58616 V 635.5571 H 569.01037 A 22.378321,22.378321 0 0 1 546.63205,613.17878 V 505.603 H 468.40383 V 613.17878 A 22.378321,22.378321 0 0 1 446.02551,635.5571 H 338.44973 v 78.19625 h 107.57578 a 22.378321,22.378321 0 0 1 22.37832,22.37832 z"
       fill="#4f46a3"
       id="path46-1"
       style="font-variation-settings:normal;stop-color:#000000;stop-opacity:1" />
  </g>
</svg>
